build/img/svg/popular-block-icon2.svg

<svg width="46" height="44" fill="none" xmlns="http://www.w3.org/2000/svg"><path d="M13 44v-2.444C13 40.112 9.7 38 7 38s-6 2.111-6 3.556V44m6-15c-2.068 0-4 1.451-4 3.24v2.52C3 36.549 4.932 38 7 38s4-1.451 4-3.24v-2.52C11 30.451 9.068 29 7 29zm22 15v-2.444C29 40.112 25.7 38 23 38s-6 2.111-6 3.556V44" stroke="#0061D9" stroke-width="2" stroke-miterlimit="10"/><path d="M23 29c-2.068 0-4 1.451-4 3.24v2.52c0 1.789 1.932 3.24 4 3.24s4-1.451 4-3.24v-2.52c0-1.789-1.932-3.24-4-3.24zm6-13v-2.444C29 12.112 25.7 10 23 10s-6 2.111-6 3.556V16" stroke="#0061D9" stroke-width="2" stroke-miterlimit="10"/><path d="M23 1c-2.068 0-4 1.612-4 3.601V6.4c0 1.988 1.932 3.601 4 3.601s4-1.612 4-3.601V4.601C27 2.612 25.068 1 23 1zm22 43v-2.444C45 40.112 41.7 38 39 38s-6 2.111-6 3.556V44" stroke="#0061D9" stroke-width="2" stroke-miterlimit="10"/><path d="M39 29c-2.068 0-4 1.451-4 3.24v2.52c0 1.789 1.932 3.24 4 3.24s4-1.451 4-3.24v-2.52c0-1.789-1.932-3.24-4-3.24zM23 16v10m16 0v-5H7v5" stroke="#0061D9" stroke-width="2" stroke-miterlimit="10"/></svg>

<svg width="46" height="44" viewBox="0 0 46 44" fill="none" xmlns="http://www.w3.org/2000/svg">
<path d="M13 44V41.556C13 40.112 9.7 38 7 38C4.3 38 1 40.111 1 41.556V44" stroke="#0061D9" stroke-width="2" stroke-miterlimit="10"/>
<path d="M7 29C4.932 29 3 30.451 3 32.24V34.76C3 36.549 4.932 38 7 38C9.068 38 11 36.549 11 34.76V32.24C11 30.451 9.068 29 7 29Z" stroke="#0061D9" stroke-width="2" stroke-miterlimit="10"/>
<path d="M29 44V41.556C29 40.112 25.7 38 23 38C20.3 38 17 40.111 17 41.556V44" stroke="#0061D9" stroke-width="2" stroke-miterlimit="10"/>
<path d="M23 29C20.932 29 19 30.451 19 32.24V34.76C19 36.549 20.932 38 23 38C25.068 38 27 36.549 27 34.76V32.24C27 30.451 25.068 29 23 29Z" stroke="#0061D9" stroke-width="2" stroke-miterlimit="10"/>
<path d="M29 16V13.556C29 12.112 25.7 10 23 10C20.3 10 17 12.111 17 13.556V16" stroke="#0061D9" stroke-width="2" stroke-miterlimit="10"/>
<path d="M23 1C20.932 1 19 2.61201 19 4.60101V6.39999C19 8.38799 20.932 10.001 23 10.001C25.068 10.001 27 8.38899 27 6.39999V4.60101C27 2.61201 25.068 1 23 1Z" stroke="#0061D9" stroke-width="2" stroke-miterlimit="10"/>
<path d="M45 44V41.556C45 40.112 41.7 38 39 38C36.3 38 33 40.111 33 41.556V44" stroke="#0061D9" stroke-width="2" stroke-miterlimit="10"/>
<path d="M39 29C36.932 29 35 30.451 35 32.24V34.76C35 36.549 36.932 38 39 38C41.068 38 43 36.549 43 34.76V32.24C43 30.451 41.068 29 39 29Z" stroke="#0061D9" stroke-width="2" stroke-miterlimit="10"/>
<path d="M23 16V26" stroke="#0061D9" stroke-width="2" stroke-miterlimit="10"/>
<path d="M39 26V21H7V26" stroke="#0061D9" stroke-width="2" stroke-miterlimit="10"/>
</svg>
